assets/customers/dark/llamaindex/llamaindex_small.svg

<svg xmlns="http://www.w3.org/2000/svg" width="20" height="20" viewBox="0 0 20 20" fill="none">
  <path fill-rule="evenodd" clip-rule="evenodd" d="M0 3.86417C0 1.73005 1.73004 0 3.86416 0H16.1358C18.2699 0 20 1.73005 20 3.86416V16.1358C20 18.27 18.2699 20 16.1358 20H3.86416C1.73004 20 0 18.27 0 16.1358V3.86417ZM4.9881 3.1695C5.0463 3.77508 4.95099 3.91074 4.46517 3.91366C3.5647 3.91907 3.84055 5.05785 4.79294 5.26707C4.93211 5.29759 5.00924 5.31451 5.03876 5.3614C5.07546 5.4197 5.03855 5.52433 4.95575 5.75905C4.72014 6.42651 4.80268 9.12056 5.07172 9.54743C5.12559 9.63289 5.19893 10.0535 5.23474 10.4822C5.31122 11.3977 5.63608 11.9607 6.38488 12.4759C6.83252 12.7839 6.85048 12.8179 6.85134 13.359C6.85178 13.6685 6.89818 14.3221 6.95444 14.8115C7.06629 15.7843 6.89461 16.7068 6.57917 16.8279C6.23376 16.9604 6.39202 17.3293 6.79423 17.3293C7.20833 17.3293 7.43377 17.0195 7.72217 16.0543C7.88249 15.5177 8.03621 15.6301 8.03881 16.286C8.03989 16.5748 7.95724 16.8019 7.76998 17.0244C7.3958 17.4692 7.42695 17.5456 7.98255 17.5456C8.59375 17.5456 8.70301 17.3669 8.80881 16.1934C9.03771 13.6553 9.08044 13.5567 9.92434 13.6189C10.6249 13.6705 11.5966 13.561 12.07 13.3771C12.2254 13.3168 12.2593 13.3636 12.2593 13.6387C12.2593 13.8552 12.3935 14.1496 12.638 14.4699C13.1836 15.1848 13.1102 16.2205 12.4717 16.8153C12.121 17.1421 12.2011 17.3293 12.6921 17.3293C13.0861 17.3293 13.1248 17.3042 13.1248 17.0474C13.1248 16.8924 13.2452 16.6225 13.3923 16.4475C13.5395 16.2727 13.7154 15.9249 13.7833 15.6747C13.8512 15.4245 13.927 15.1509 13.9519 15.0668C13.9843 14.957 14.1031 15.0165 14.3723 15.2773C14.8397 15.7303 14.93 16.8059 14.5311 17.167C14.2069 17.4604 14.2652 17.5456 14.7899 17.5456C15.3607 17.5456 15.3826 17.507 15.5275 16.2475L15.5291 16.2336C15.5907 15.6984 15.6229 15.4187 15.6232 15.1389C15.6235 14.8328 15.5857 14.5267 15.5064 13.8855L15.5042 13.8676C15.226 11.6152 15.2295 11.5213 15.6035 11.1718C16.6007 10.2404 15.702 8.60899 14.2635 8.73935C13.5967 8.79971 13.4283 8.77699 13.0263 8.57189C12.2519 8.17672 11.2671 8.02992 9.37836 8.02786C8.32651 8.02676 7.9087 8.02631 7.72598 7.81883C7.60557 7.6821 7.58726 7.45546 7.55687 7.07947C7.36183 4.66592 6.97434 3.5147 6.15814 2.92297C5.67762 2.57464 5.55235 2.54619 5.55235 2.78558C5.55235 2.938 5.52952 2.938 5.31187 2.78558C4.95554 2.53591 4.93011 2.56598 4.9881 3.1695Z" fill="#FCFCFD"/>
</svg>

<svg xmlns="http://www.w3.org/2000/svg" width="20" height="20" fill="none" viewBox="0 0 20 20"><path fill="#FCFCFD" fill-rule="evenodd" d="M0 3.864A3.864 3.864 0 0 1 3.864 0h12.272A3.864 3.864 0 0 1 20 3.864v12.272A3.864 3.864 0 0 1 16.136 20H3.864A3.864 3.864 0 0 1 0 16.136zm4.988-.694c.058.605-.037.74-.523.744-.9.005-.624 1.144.328 1.353.14.03.216.048.246.094.036.059 0 .163-.083.398-.236.668-.153 3.362.116 3.788.054.086.127.506.163.935.076.916.401 1.479 1.15 1.994.448.308.465.342.466.883 0 .31.047.963.103 1.453.112.972-.06 1.895-.375 2.016-.345.132-.187.501.215.501.414 0 .64-.31.928-1.275.16-.536.314-.424.317.232 0 .289-.082.516-.269.738-.374.445-.343.522.213.522.61 0 .72-.18.826-1.353.229-2.538.271-2.636 1.115-2.574.7.052 1.673-.058 2.146-.242.155-.06.19-.013.19.262 0 .216.133.51.378.83.546.716.472 1.752-.166 2.346-.351.327-.27.514.22.514.394 0 .433-.025.433-.282 0-.155.12-.425.267-.6.148-.174.323-.522.391-.772s.144-.524.169-.608c.032-.11.151-.05.42.21.468.453.558 1.529.16 1.89-.325.293-.267.379.258.379.57 0 .593-.039.738-1.299l.001-.013c.062-.536.094-.815.094-1.095 0-.306-.037-.612-.117-1.253l-.002-.018c-.278-2.253-.274-2.347.1-2.696.997-.932.098-2.563-1.34-2.433-.667.06-.836.038-1.238-.167-.774-.395-1.759-.542-3.648-.544-1.051-.001-1.47-.002-1.652-.21-.12-.136-.139-.363-.17-.739-.194-2.413-.582-3.564-1.398-4.156-.48-.348-.606-.377-.606-.137 0 .152-.022.152-.24 0-.356-.25-.382-.22-.324.384" clip-rule="evenodd"/></svg>
